.icons/Gruvbox-Plus-Dark/apps/16/auryo.svg

<svg width="16" height="16" version="1.1" xmlns="http://www.w3.org/2000/svg">
  <defs>
    <style type="text/css" id="current-color-scheme">.ColorScheme-Text { color:#ebdbb2; } .ColorScheme-Highlight { color:#458588; }</style>
  </defs>
  <path class="ColorScheme-Text" fill="currentColor" d="m8 1.412c-3.379 0-6.118 2.739-6.118 6.117v1.984c-1.112 0.315-1.881 1.33-1.882 2.487 0 1.429 1.159 2.588 2.588 2.588 0.41-1e-3 0.813-0.099 1.177-0.286v0.286h1.411v-5.176h-1.411v0.283c-0.151-0.077-0.308-0.138-0.471-0.184v-1.982c0-2.599 2.107-4.705 4.706-4.705s4.706 2.106 4.706 4.705v1.984c-1.113 0.315-1.881 1.33-1.882 2.487 0 1.429 1.158 2.588 2.588 2.588 1.429 0 2.588-1.159 2.588-2.588-1e-3 -1.157-0.769-2.173-1.882-2.489v-1.982c0-3.378-2.739-6.117-6.118-6.117zm-5.412 9.412c0.65 0 1.177 0.526 1.177 1.176s-0.527 1.176-1.177 1.176c-0.649 0-1.176-0.526-1.176-1.176s0.527-1.176 1.176-1.176zm10.82 0c0.649 0 1.176 0.526 1.176 1.176s-0.527 1.176-1.176 1.176c-0.65 0-1.177-0.526-1.177-1.176s0.527-1.176 1.177-1.176z"/>
</svg>

<svg xmlns="http://www.w3.org/2000/svg" style="isolation:isolate" width="16" height="16" viewBox="0 0 16 16">
 <defs>
  <style id="current-color-scheme" type="text/css">
   .ColorScheme-Text { color:#ebdbb2; } .ColorScheme-Highlight { color:#458588; }
  </style>
  <linearGradient id="arrongin" x1="0%" x2="0%" y1="0%" y2="100%">
   <stop offset="0%" style="stop-color:#d79921; stop-opacity:1"/>
   <stop offset="100%" style="stop-color:#b57614; stop-opacity:1"/>
  </linearGradient>
  <linearGradient id="aurora" x1="0%" x2="0%" y1="0%" y2="100%">
   <stop offset="0%" style="stop-color:#83a598; stop-opacity:1"/>
   <stop offset="100%" style="stop-color:#b16286; stop-opacity:1"/>
  </linearGradient>
  <linearGradient id="fitdance" x1="0%" x2="0%" y1="0%" y2="100%">
   <stop offset="0%" style="stop-color:#8ec07c; stop-opacity:1"/>
   <stop offset="100%" style="stop-color:#458588; stop-opacity:1"/>
  </linearGradient>
  <linearGradient id="oomox" x1="0%" x2="0%" y1="0%" y2="100%">
   <stop offset="0%" style="stop-color:#458588; stop-opacity:1"/>
   <stop offset="100%" style="stop-color:#928374; stop-opacity:1"/>
  </linearGradient>
  <linearGradient id="rainblue" x1="0%" x2="0%" y1="0%" y2="100%">
   <stop offset="0%" style="stop-color:#b8bb26; stop-opacity:1"/>
   <stop offset="100%" style="stop-color:#076678; stop-opacity:1"/>
  </linearGradient>
  <linearGradient id="sunrise" x1="0%" x2="0%" y1="0%" y2="100%">
   <stop offset="0%" style="stop-color: #fe8019; stop-opacity:1"/>
   <stop offset="100%" style="stop-color: #fabd2f; stop-opacity:1"/>
  </linearGradient>
  <linearGradient id="telinkrin" x1="0%" x2="0%" y1="0%" y2="100%">
   <stop offset="0%" style="stop-color: #83a598; stop-opacity:1"/>
   <stop offset="100%" style="stop-color: #83a598; stop-opacity:1"/>
  </linearGradient>
  <linearGradient id="60spsycho" x1="0%" x2="0%" y1="0%" y2="100%">
   <stop offset="0%" style="stop-color: #fb4934; stop-opacity:1"/>
   <stop offset="25%" style="stop-color: #fabd2f; stop-opacity:1"/>
   <stop offset="50%" style="stop-color: #fe8019; stop-opacity:1"/>
   <stop offset="100%" style="stop-color: #689d6a; stop-opacity:1"/>
  </linearGradient>
  <linearGradient id="90ssummer" x1="0%" x2="0%" y1="0%" y2="100%">
   <stop offset="0%" style="stop-color: #b16286; stop-opacity:1"/>
   <stop offset="20%" style="stop-color: #8ec07c; stop-opacity:1"/>
   <stop offset="50%" style="stop-color: #fabd2f; stop-opacity:1"/>
   <stop offset="100%" style="stop-color: #458588; stop-opacity:1"/>
  </linearGradient>
  <linearGradient id="cyberneon" x1="0%" x2="0%" y1="0%" y2="100%">
    <stop offset="0" style="stop-color:#83a598; stop-opacity:1"/>
    <stop offset="1" style="stop-color:#b16286; stop-opacity:1"/>
  </linearGradient>
 </defs>
 <path style="fill:currentColor" class="ColorScheme-Text" d="M 8 1.412 C 4.621 1.412 1.882 4.151 1.882 7.529 L 1.882 9.513 C 0.77 9.828 0.001 10.843 0 12 C 0 13.429 1.159 14.588 2.588 14.588 C 2.998 14.587 3.401 14.489 3.765 14.302 L 3.765 14.588 L 5.176 14.588 L 5.176 12 L 5.176 9.412 L 3.765 9.412 L 3.765 9.695 C 3.614 9.618 3.457 9.557 3.294 9.511 L 3.294 7.529 C 3.294 4.93 5.401 2.824 8 2.824 C 10.599 2.824 12.706 4.93 12.706 7.529 L 12.706 9.513 C 11.593 9.828 10.825 10.843 10.824 12 C 10.824 13.429 11.982 14.588 13.412 14.588 C 14.841 14.588 16 13.429 16 12 C 15.999 10.843 15.231 9.827 14.118 9.511 L 14.118 7.529 C 14.118 4.151 11.379 1.412 8 1.412 Z M 2.588 10.824 C 3.238 10.824 3.765 11.35 3.765 12 C 3.765 12.65 3.238 13.176 2.588 13.176 C 1.939 13.176 1.412 12.65 1.412 12 C 1.412 11.35 1.939 10.824 2.588 10.824 Z M 13.412 10.824 C 14.061 10.824 14.588 11.35 14.588 12 C 14.588 12.65 14.061 13.176 13.412 13.176 C 12.762 13.176 12.235 12.65 12.235 12 C 12.235 11.35 12.762 10.824 13.412 10.824 Z"/>
</svg>
